assets/bank-tab/Asset/Auto Loan.svg

<svg width="24" height="24" viewBox="0 0 24 24" fill="none" xmlns="http://www.w3.org/2000/svg">
<path fill-rule="evenodd" clip-rule="evenodd" d="M20.2239 6.57155C19.9114 5.4838 19.7551 4.93992 19.4983 4.49912C18.9561 3.56832 18.0713 2.89474 17.0392 2.62695C16.5504 2.50012 15.9923 2.50012 14.8761 2.50012H9.19392C8.07769 2.50012 7.51957 2.50012 7.03078 2.62695C5.99867 2.89474 5.11391 3.56832 4.57165 4.49912C4.31485 4.93992 4.15858 5.4838 3.84603 6.57155L2.95129 9.68552C2.91759 9.67795 2.88334 9.67163 2.8486 9.66663L0.863004 9.38079C0.497467 9.32817 0.159116 9.58631 0.107277 9.95736L0.0134137 10.6292C-0.0902648 11.3713 0.418341 12.0582 1.14942 12.1635L1.33921 12.1908V14.7144C1.33921 16.4941 2.46408 18.007 4.03147 18.5607C4.01942 18.6339 4.01315 18.7091 4.01315 18.7858V20.143C4.01315 20.8925 4.61174 21.5001 5.35012 21.5001H6.6871C7.42549 21.5001 8.02407 20.8925 8.02407 20.143V18.7858H16.0459V20.143C16.0459 20.8925 16.6445 21.5001 17.3829 21.5001H18.7199C19.4582 21.5001 20.0568 20.8925 20.0568 20.143V18.7858C20.0568 18.7091 20.0506 18.6339 20.0385 18.5607C21.6059 18.007 22.7308 16.4941 22.7308 14.7144V12.1814L22.8506 12.1641C23.5817 12.0589 24.0903 11.372 23.9866 10.6299L23.8927 9.95801C23.8409 9.58696 23.5025 9.32882 23.137 9.38144L21.1514 9.66728C21.1392 9.66903 21.1271 9.67094 21.1151 9.67301L20.2239 6.57155ZM6.19294 6.32831C6.49413 5.46844 6.64473 5.03851 6.9842 4.79088L7.00279 4.77756C7.34636 4.53584 7.79589 4.53584 8.69493 4.53584H15.4637C16.3859 4.53584 16.847 4.53584 17.1953 4.78788L17.2066 4.79617C17.5523 5.05189 17.6982 5.49594 17.9898 6.38403C18.6064 8.26183 18.9147 9.20073 18.4794 9.77317L18.4657 9.79079C18.0211 10.3559 17.0139 10.2715 14.9993 10.1027C14.0311 10.0215 13.0049 9.96441 12.035 9.96441C11.0946 9.96441 10.1014 10.0181 9.15939 10.0953C7.11526 10.2628 6.09319 10.3466 5.64966 9.77677C5.64172 9.76656 5.63486 9.7575 5.62719 9.74707C5.19932 9.16503 5.53053 8.21945 6.19294 6.32831ZM4.81274 13.5196C4.39909 13.4356 4.01315 13.7568 4.01315 14.185V15.393C4.01315 15.7677 4.31244 16.0716 4.68164 16.0716H6.87303C7.4393 16.0716 7.83915 15.5084 7.66008 14.9631C7.47179 14.3897 6.99525 13.9627 6.41138 13.8441L4.81274 13.5196ZM20.0568 14.185C20.0568 13.7568 19.6709 13.4356 19.2572 13.5196L17.6586 13.8441C17.0747 13.9627 16.5982 14.3897 16.4099 14.9631C16.2308 15.5084 16.6307 16.0716 17.197 16.0716H19.3883C19.7575 16.0716 20.0568 15.7677 20.0568 15.393V14.185Z" fill="#8F242A"/>
</svg>

<svg xmlns="http://www.w3.org/2000/svg" width="24" height="24" fill="none" viewBox="0 0 24 24"><path fill="#8f242a" fill-rule="evenodd" d="M20.224 6.572c-.313-1.088-.469-1.632-.726-2.073a4.02 4.02 0 0 0-2.459-1.872C16.55 2.5 15.992 2.5 14.876 2.5H9.194c-1.116 0-1.674 0-2.163.127a4.02 4.02 0 0 0-2.46 1.872c-.256.44-.412.985-.725 2.073l-.895 3.114a1 1 0 0 0-.102-.02L.863 9.382a.67.67 0 0 0-.756.576l-.094.672a1.354 1.354 0 0 0 1.136 1.535l.19.027v2.523a4.07 4.07 0 0 0 2.692 3.847 1.4 1.4 0 0 0-.018.225v1.357c0 .75.599 1.357 1.337 1.357h1.337c.738 0 1.337-.608 1.337-1.357v-1.357h8.022v1.357c0 .75.599 1.357 1.337 1.357h1.337c.738 0 1.337-.608 1.337-1.357v-1.357a1.4 1.4 0 0 0-.018-.225 4.07 4.07 0 0 0 2.692-3.847v-2.533l.12-.017a1.354 1.354 0 0 0 1.136-1.534l-.094-.672a.67.67 0 0 0-.756-.577l-1.986.286-.036.006zM6.193 6.328c.301-.86.452-1.29.791-1.537l.019-.013c.343-.242.793-.242 1.692-.242h6.769c.922 0 1.383 0 1.731.252l.012.008c.345.256.491.7.783 1.588.616 1.878.925 2.817.49 3.39l-.014.017c-.445.565-1.452.48-3.467.312a36 36 0 0 0-2.964-.139c-.94 0-1.934.054-2.876.131-2.044.168-3.066.252-3.51-.318l-.022-.03c-.428-.582-.096-1.528.566-3.419m-1.38 7.192a.67.67 0 0 0-.8.665v1.208c0 .375.3.679.669.679h2.191a.84.84 0 0 0 .787-1.109 1.67 1.67 0 0 0-1.249-1.119zm15.244.665a.67.67 0 0 0-.8-.665l-1.598.324a1.67 1.67 0 0 0-1.25 1.12.84.84 0 0 0 .788 1.108h2.191c.37 0 .669-.304.669-.679z" clip-rule="evenodd"/></svg>
